assets/efishery/timbangan-ikan-fill.svg

<svg width="24" height="25" viewBox="0 0 24 25" fill="none" xmlns="http://www.w3.org/2000/svg">
<path fill-rule="evenodd" clip-rule="evenodd" d="M7 15.7734C7 13.1501 9.12665 11.0234 11.75 11.0234C14.3734 11.0234 16.5 13.1501 16.5 15.7734C16.5 18.3968 14.3734 20.5234 11.75 20.5234C9.12665 20.5234 7 18.3968 7 15.7734ZM13.6036 13.9199C13.7988 14.1151 13.7988 14.4317 13.6036 14.627L12.7161 15.5144C12.7382 15.597 12.75 15.6839 12.75 15.7734C12.75 16.3257 12.3023 16.7734 11.75 16.7734C11.6604 16.7734 11.5736 16.7617 11.491 16.7396L11.1036 17.127C10.9083 17.3223 10.5917 17.3223 10.3964 17.127C10.2012 16.9317 10.2012 16.6151 10.3964 16.4199L10.7839 16.0325C10.7618 15.9498 10.75 15.863 10.75 15.7734C10.75 15.2212 11.1977 14.7734 11.75 14.7734C11.8396 14.7734 11.9264 14.7852 12.009 14.8073L12.8964 13.9199C13.0917 13.7246 13.4083 13.7246 13.6036 13.9199Z" fill="#1D1D1D"/>
<path fill-rule="evenodd" clip-rule="evenodd" d="M13.2885 2.27344C12.2954 2.27344 11.4024 2.55923 10.7425 2.92501C10.5795 3.01536 10.4228 3.11496 10.2771 3.2226L9.09645 2.46465C8.73319 2.23145 8.26976 2.2104 7.88658 2.40787C7.50139 2.60639 7.25 3.00007 7.25 3.4401V6.10677C7.25 6.35197 7.32806 6.58277 7.46382 6.77344H5.1875C4.94588 6.77344 4.75 6.96931 4.75 7.21094C4.75 7.45256 4.94588 7.64844 5.1875 7.64844H8.25V8.64844H7.375C6.96079 8.64844 6.625 8.98422 6.625 9.39844V11.2734C6.625 11.3071 6.62722 11.3403 6.63153 11.3728C5.61466 12.5545 5 14.0922 5 15.7734C5 17.0496 5.35413 18.243 5.96948 19.2608C4.83087 19.5972 4 20.6508 4 21.8984V22.5234C4 22.9377 4.33579 23.2734 4.75 23.2734H18.75C19.1642 23.2734 19.5 22.9377 19.5 22.5234V21.8984C19.5 20.6508 18.6691 19.5972 17.5305 19.2608C18.1459 18.243 18.5 17.0496 18.5 15.7734C18.5 14.0922 17.8853 12.5545 16.8685 11.3728C16.8728 11.3403 16.875 11.3071 16.875 11.2734V9.39844C16.875 8.98422 16.5392 8.64844 16.125 8.64844H15.25V7.64844H18.3125C18.5541 7.64844 18.75 7.45256 18.75 7.21094C18.75 6.96931 18.5541 6.77344 18.3125 6.77344H15.7513C15.7586 6.76999 15.7659 6.76652 15.7731 6.76303C16.3897 6.46618 17.25 5.83418 17.25 4.77344C17.25 3.71269 16.3897 3.08069 15.7731 2.78384C15.0756 2.44799 14.1955 2.27344 13.2885 2.27344ZM11.0399 6.77344C10.9363 6.72495 10.837 6.67423 10.7425 6.62186C10.5795 6.53152 10.4228 6.43191 10.2771 6.32427L9.57745 6.77344H11.0399ZM14.8454 21.7734C15.4236 21.4745 15.9531 21.0945 16.4187 20.6484H16.75C17.3982 20.6484 17.9311 21.1418 17.9938 21.7734H14.8454ZM7.08127 20.6484C7.54694 21.0945 8.0764 21.4745 8.6546 21.7734H5.50617C5.56889 21.1418 6.10183 20.6484 6.75 20.6484H7.08127ZM14.6731 4.4401C14.6731 4.25601 14.8281 4.10677 15.0192 4.10677C15.2104 4.10677 15.3654 4.25601 15.3654 4.4401C15.3654 4.6242 15.2104 4.77344 15.0192 4.77344C14.8281 4.77344 14.6731 4.6242 14.6731 4.4401ZM10 7.64844H13.5V8.64844H10V7.64844ZM6.5 15.7734C6.5 12.8739 8.8505 10.5234 11.75 10.5234C14.6495 10.5234 17 12.8739 17 15.7734C17 18.6729 14.6495 21.0234 11.75 21.0234C8.8505 21.0234 6.5 18.6729 6.5 15.7734Z" fill="#1D1D1D"/>
</svg>

<svg viewBox="0 0 24 25" xmlns="http://www.w3.org/2000/svg">
  <path fill-rule="evenodd" clip-rule="evenodd" d="M7 15.773a4.75 4.75 0 1 1 9.5 0 4.75 4.75 0 0 1-9.5 0zm6.604-1.853a.5.5 0 0 1 0 .707l-.888.887a1.001 1.001 0 0 1-1.225 1.226l-.387.387a.5.5 0 0 1-.708-.707l.388-.388a1.002 1.002 0 0 1 1.225-1.225l.887-.887a.5.5 0 0 1 .708 0z"/>
  <path fill-rule="evenodd" clip-rule="evenodd" d="M13.289 2.273c-.994 0-1.887.286-2.546.652-.164.09-.32.19-.466.298l-1.18-.758a1.215 1.215 0 0 0-1.21-.057A1.164 1.164 0 0 0 7.25 3.44v2.667c0 .245.078.476.214.666H5.187a.437.437 0 1 0 0 .875H8.25v1h-.875a.75.75 0 0 0-.75.75v1.875c0 .034.002.067.007.1A6.724 6.724 0 0 0 5 15.773c0 1.277.354 2.47.97 3.488A2.751 2.751 0 0 0 4 21.898v.625c0 .415.336.75.75.75h14a.75.75 0 0 0 .75-.75v-.625c0-1.247-.83-2.3-1.97-2.637a6.718 6.718 0 0 0 .97-3.488 6.724 6.724 0 0 0-1.631-4.4.758.758 0 0 0 .006-.1V9.398a.75.75 0 0 0-.75-.75h-.875v-1h3.063a.438.438 0 0 0 0-.875H15.75l.022-.01c.617-.297 1.477-.929 1.477-1.99 0-1.06-.86-1.692-1.477-1.99-.697-.335-1.578-.51-2.484-.51zm-2.25 4.5a4.261 4.261 0 0 1-.763-.45l-.699.45h1.463zm3.806 15a6.767 6.767 0 0 0 1.574-1.125h.331a1.25 1.25 0 0 1 1.244 1.125h-3.149zm-7.764-1.125c.466.447.995.826 1.574 1.125H5.506a1.25 1.25 0 0 1 1.244-1.125h.331zM14.673 4.44a.34.34 0 0 1 .346-.333.34.34 0 0 1 .346.333.34.34 0 0 1-.346.333.34.34 0 0 1-.346-.333zM10 7.648h3.5v1H10v-1zm-3.5 8.125a5.25 5.25 0 1 1 10.5 0 5.25 5.25 0 0 1-10.5 0z"/>
</svg>
